client/src/images/css-svg.svg

<svg width="100" height="119" viewBox="0 0 136 155" fill="none" xmlns="http://www.w3.org/2000/svg">
<g filter="url(#filter0_d)">
<path d="M5.97614 145.949V2H109.927L130.024 34.5513V145.949H5.97614Z" fill="#026FBA"/>
<path d="M5.97614 1.5H5.47614V2V145.949V146.449H5.97614H130.024H130.524V145.949V34.5513V34.4094L130.449 34.2887L110.352 1.73733L110.206 1.5H109.927H5.97614Z" stroke="black"/>
</g>
<path d="M105.481 33.9297L109.479 2L130 37L105.481 33.9297Z" fill="#026FBA" stroke="black"/>
<path d="M62.3257 66.7551C60.6548 66.2831 59.3945 65.5043 58.5449 64.4186C57.7048 63.3425 57.2847 61.917 57.2847 60.1423V57.3244C57.2847 55.0305 56.284 53.8835 54.2827 53.8835V51.8303C56.284 51.8303 57.2847 50.688 57.2847 48.4035V45.4582C57.3035 43.7307 57.7236 42.3382 58.5449 41.2809C59.3757 40.2142 60.6359 39.4401 62.3257 38.9587L62.8638 40.5871C60.8908 41.2196 59.9043 42.8669 59.9043 45.529V48.3893C59.9043 50.5322 59.116 52.0238 57.5396 52.864C59.116 53.7136 59.9043 55.2193 59.9043 57.381V60.298C59.9326 62.8941 60.9191 64.5036 62.8638 65.1266L62.3257 66.7551ZM70.666 65.1266C72.5824 64.513 73.5736 62.9507 73.6396 60.4396V57.3244C73.6396 55.1437 74.494 53.6569 76.2026 52.864C74.494 52.0899 73.6396 50.603 73.6396 48.4035V45.529C73.6396 42.8669 72.6532 41.2196 70.6802 40.5871L71.2183 38.9587C72.8892 39.4307 74.1447 40.2001 74.9849 41.2668C75.825 42.3241 76.2498 43.7259 76.2593 45.4724V48.446C76.2593 50.7022 77.2599 51.8303 79.2612 51.8303V53.8835C77.2599 53.8835 76.2593 55.0305 76.2593 57.3244V60.1848C76.2593 61.9595 75.8298 63.3802 74.9707 64.447C74.1211 65.5137 72.8703 66.2831 71.2183 66.7551L70.666 65.1266Z" fill="black"/>
<path d="M57.8243 92.8566C57.5695 95.0372 56.7623 96.7223 55.403 97.9117C54.053 99.0918 52.2547 99.6818 50.0079 99.6818C47.5724 99.6818 45.6183 98.8086 44.1456 97.0621C42.6824 95.3157 41.9508 92.9793 41.9508 90.0529V88.0704C41.9508 86.1541 42.2906 84.469 42.9703 83.0153C43.6595 81.5615 44.6318 80.4476 45.8873 79.6735C47.1429 78.8899 48.5966 78.4982 50.2487 78.4982C52.4388 78.4982 54.1946 79.1118 55.5162 80.339C56.8378 81.5568 57.6072 83.2465 57.8243 85.4083H55.0914C54.8554 83.7657 54.3409 82.5763 53.548 81.84C52.7644 81.1036 51.6647 80.7355 50.2487 80.7355C48.5117 80.7355 47.1476 81.3774 46.1564 82.6613C45.1746 83.9451 44.6837 85.7718 44.6837 88.1412V90.1378C44.6837 92.3751 45.151 94.1546 46.0856 95.4762C47.0201 96.7978 48.3276 97.4586 50.0079 97.4586C51.5184 97.4586 52.6748 97.1188 53.4772 96.4391C54.289 95.75 54.8271 94.5558 55.0914 92.8566H57.8243ZM67.6232 90.2086C65.2915 89.5384 63.5922 88.7171 62.5255 87.7448C61.4682 86.763 60.9396 85.5546 60.9396 84.1198C60.9396 82.4961 61.5862 81.1556 62.8795 80.0983C64.1823 79.0315 65.872 78.4982 67.9489 78.4982C69.3649 78.4982 70.6251 78.7719 71.7296 79.3195C72.8435 79.867 73.7026 80.6222 74.3068 81.5851C74.9204 82.548 75.2272 83.6005 75.2272 84.7428H72.4943C72.4943 83.4967 72.0978 82.5197 71.3048 81.8116C70.5118 81.0942 69.3932 80.7355 67.9489 80.7355C66.6084 80.7355 65.5605 81.0328 64.8053 81.6276C64.0595 82.2128 63.6866 83.0294 63.6866 84.0773C63.6866 84.9174 64.0406 85.6302 64.7487 86.2155C65.4661 86.7913 66.6792 87.3199 68.3878 87.8014C70.1059 88.2828 71.4464 88.8162 72.4093 89.4015C73.3816 89.9773 74.0991 90.6523 74.5616 91.4264C75.0337 92.2005 75.2697 93.1115 75.2697 94.1593C75.2697 95.8302 74.6183 97.1707 73.3156 98.1808C72.0128 99.1814 70.2711 99.6818 68.0905 99.6818C66.6744 99.6818 65.3528 99.4127 64.1256 98.8746C62.8984 98.3271 61.9497 97.5813 61.2794 96.6373C60.6186 95.6933 60.2882 94.6219 60.2882 93.423H63.0211C63.0211 94.6691 63.479 95.6556 64.3947 96.3824C65.3198 97.0999 66.5517 97.4586 68.0905 97.4586C69.5253 97.4586 70.6251 97.166 71.3898 96.5807C72.1544 95.9954 72.5367 95.1977 72.5367 94.1876C72.5367 93.1775 72.1827 92.3987 71.4747 91.8512C70.7667 91.2942 69.4829 90.7467 67.6232 90.2086ZM84.8419 90.2086C82.5102 89.5384 80.811 88.7171 79.7443 87.7448C78.687 86.763 78.1583 85.5546 78.1583 84.1198C78.1583 82.4961 78.805 81.1556 80.0983 80.0983C81.401 79.0315 83.0908 78.4982 85.1676 78.4982C86.5836 78.4982 87.8439 78.7719 88.9484 79.3195C90.0623 79.867 90.9213 80.6222 91.5255 81.5851C92.1391 82.548 92.4459 83.6005 92.4459 84.7428H89.713C89.713 83.4967 89.3165 82.5197 88.5236 81.8116C87.7306 81.0942 86.6119 80.7355 85.1676 80.7355C83.8271 80.7355 82.7793 81.0328 82.024 81.6276C81.2783 82.2128 80.9054 83.0294 80.9054 84.0773C80.9054 84.9174 81.2594 85.6302 81.9674 86.2155C82.6849 86.7913 83.8979 87.3199 85.6066 87.8014C87.3247 88.2828 88.6652 88.8162 89.6281 89.4015C90.6004 89.9773 91.3178 90.6523 91.7804 91.4264C92.2524 92.2005 92.4884 93.1115 92.4884 94.1593C92.4884 95.8302 91.837 97.1707 90.5343 98.1808C89.2316 99.1814 87.4899 99.6818 85.3092 99.6818C83.8932 99.6818 82.5716 99.4127 81.3444 98.8746C80.1171 98.3271 79.1684 97.5813 78.4982 96.6373C77.8374 95.6933 77.507 94.6219 77.507 93.423H80.2399C80.2399 94.6691 80.6977 95.6556 81.6134 96.3824C82.5385 97.0999 83.7705 97.4586 85.3092 97.4586C86.7441 97.4586 87.8439 97.166 88.6085 96.5807C89.3732 95.9954 89.7555 95.1977 89.7555 94.1876C89.7555 93.1775 89.4015 92.3987 88.6935 91.8512C87.9855 91.2942 86.7016 90.7467 84.8419 90.2086Z" fill="black"/>
<defs>
<filter id="filter0_d" x="0.976135" y="1" width="134.048" height="153.949" filterUnits="userSpaceOnUse" color-interpolation-filters="sRGB">
<feFlood flood-opacity="0" result="BackgroundImageFix"/>
<feColorMatrix in="SourceAlpha" type="matrix" values="0 0 0 0 0 0 0 0 0 0 0 0 0 0 0 0 0 0 127 0"/>
<feOffset dy="4"/>
<feGaussianBlur stdDeviation="2"/>
<feColorMatrix type="matrix" values="0 0 0 0 0 0 0 0 0 0 0 0 0 0 0 0 0 0 0.25 0"/>
<feBlend mode="normal" in2="BackgroundImageFix" result="effect1_dropShadow"/>
<feBlend mode="normal" in="SourceGraphic" in2="effect1_dropShadow" result="shape"/>
</filter>
</defs>
</svg>

<svg width="100" height="119" viewBox="0 0 136 155" fill="none" xmlns="http://www.w3.org/2000/svg">
  <g filter="url(#filter0_d)">
    <path d="M5.976 145.949V2h103.951l20.097 32.551V145.95H5.976z" fill="#026FBA"/>
    <path d="M5.976 1.5h-.5v144.949h125.048V34.409l-.075-.12-20.097-32.552-.146-.237H5.977z" stroke="#000"/>
  </g>
  <path d="M105.481 33.93L109.479 2 130 37l-24.519-3.07z" fill="#026FBA" stroke="#000"/>
  <path d="M62.326 66.755c-1.671-.472-2.931-1.25-3.781-2.336-.84-1.076-1.26-2.502-1.26-4.277v-2.818c0-2.293-1.001-3.44-3.002-3.44V51.83c2.001 0 3.002-1.142 3.002-3.426v-2.946c.019-1.727.439-3.12 1.26-4.177.83-1.067 2.09-1.84 3.78-2.322l.539 1.628c-1.973.633-2.96 2.28-2.96 4.942v2.86c0 2.143-.788 3.635-2.364 4.475 1.576.85 2.364 2.355 2.364 4.517v2.917c.029 2.596 1.015 4.206 2.96 4.829l-.538 1.628zm8.34-1.628c1.916-.614 2.908-2.176 2.974-4.687v-3.116c0-2.18.854-3.667 2.563-4.46-1.709-.774-2.563-2.261-2.563-4.46v-2.875c0-2.662-.987-4.31-2.96-4.942l.538-1.628c1.671.472 2.927 1.241 3.767 2.308.84 1.057 1.265 2.459 1.274 4.205v2.974c0 2.256 1 3.384 3.002 3.384v2.053c-2.001 0-3.002 1.148-3.002 3.441v2.86c0 1.776-.43 3.196-1.288 4.263-.85 1.067-2.1 1.836-3.753 2.308l-.552-1.628zM57.824 92.857c-.255 2.18-1.062 3.865-2.421 5.055-1.35 1.18-3.148 1.77-5.395 1.77-2.436 0-4.39-.873-5.862-2.62-1.464-1.746-2.195-4.083-2.195-7.01V88.07c0-1.916.34-3.601 1.02-5.055.689-1.454 1.66-2.567 2.916-3.341 1.256-.784 2.71-1.176 4.362-1.176 2.19 0 3.946.614 5.267 1.841 1.322 1.218 2.091 2.907 2.308 5.07h-2.733c-.236-1.643-.75-2.833-1.543-3.569-.784-.736-1.883-1.105-3.3-1.105-1.736 0-3.1.642-4.092 1.926-.981 1.284-1.472 3.11-1.472 5.48v1.997c0 2.237.467 4.017 1.402 5.338.934 1.322 2.242 1.983 3.922 1.983 1.51 0 2.667-.34 3.47-1.02.811-.689 1.35-1.883 1.613-3.582h2.733zm9.8-2.648c-2.332-.67-4.032-1.492-5.098-2.464-1.058-.982-1.586-2.19-1.586-3.625 0-1.624.646-2.964 1.94-4.022 1.302-1.067 2.992-1.6 5.069-1.6 1.416 0 2.676.274 3.78.822 1.115.547 1.974 1.302 2.578 2.265a5.76 5.76 0 01.92 3.158h-2.733c0-1.246-.396-2.223-1.19-2.931-.792-.718-1.91-1.076-3.355-1.076-1.34 0-2.388.297-3.144.892-.746.585-1.118 1.401-1.118 2.45 0 .84.354 1.552 1.062 2.138.717.575 1.93 1.104 3.639 1.585 1.718.482 3.058 1.015 4.021 1.6.973.576 1.69 1.251 2.153 2.025.472.775.708 1.686.708 2.733 0 1.671-.652 3.012-1.954 4.022-1.303 1-3.045 1.5-5.225 1.5-1.417 0-2.738-.268-3.965-.806-1.228-.548-2.176-1.294-2.847-2.238-.66-.944-.99-2.015-.99-3.214h2.732c0 1.246.458 2.233 1.374 2.96.925.717 2.157 1.076 3.696 1.076 1.434 0 2.534-.293 3.299-.878.764-.586 1.147-1.383 1.147-2.393 0-1.01-.354-1.79-1.062-2.337-.708-.557-1.992-1.104-3.852-1.642zm17.218 0c-2.332-.67-4.031-1.492-5.098-2.464-1.057-.982-1.586-2.19-1.586-3.625 0-1.624.647-2.964 1.94-4.022 1.303-1.067 2.993-1.6 5.07-1.6 1.416 0 2.676.274 3.78.822 1.114.547 1.973 1.302 2.578 2.265a5.76 5.76 0 01.92 3.158h-2.733c0-1.246-.396-2.223-1.19-2.931-.792-.718-1.911-1.076-3.355-1.076-1.34 0-2.389.297-3.144.892-.746.585-1.119 1.401-1.119 2.45 0 .84.354 1.552 1.062 2.138.718.575 1.93 1.104 3.64 1.585 1.718.482 3.058 1.015 4.021 1.6.972.576 1.69 1.251 2.152 2.025.472.775.708 1.686.708 2.733 0 1.671-.651 3.012-1.954 4.022-1.302 1-3.044 1.5-5.225 1.5-1.416 0-2.737-.268-3.965-.806-1.227-.548-2.176-1.294-2.846-2.238-.66-.944-.991-2.015-.991-3.214h2.733c0 1.246.458 2.233 1.373 2.96.925.717 2.157 1.076 3.696 1.076 1.435 0 2.535-.293 3.3-.878.764-.586 1.147-1.383 1.147-2.393 0-1.01-.355-1.79-1.063-2.337-.707-.557-1.991-1.104-3.851-1.642z" fill="#000"/>
  <defs>
    <filter id="filter0_d" x=".976" y="1" width="134.048" height="153.949" filterUnits="userSpaceOnUse" color-interpolation-filters="sRGB">
      <feFlood flood-opacity="0" result="BackgroundImageFix"/>
      <feColorMatrix in="SourceAlpha" values="0 0 0 0 0 0 0 0 0 0 0 0 0 0 0 0 0 0 127 0"/>
      <feOffset dy="4"/>
      <feGaussianBlur stdDeviation="2"/>
      <feColorMatrix values="0 0 0 0 0 0 0 0 0 0 0 0 0 0 0 0 0 0 0.25 0"/>
      <feBlend in2="BackgroundImageFix" result="effect1_dropShadow"/>
      <feBlend in="SourceGraphic" in2="effect1_dropShadow" result="shape"/>
    </filter>
  </defs>
</svg>
